donkey.svg

<svg fill="currentColor" viewBox="0 0 24 24"><path d="m21.34 10.35-.07-.07-.09-.09L18 7V6a.5.5 0 0 0-.5-.5c-.14 0-.28.06-.37.16L13.46 9H7c-.68 0-1.31.35-1.68.92l-2.7 2.67c-.33.45-.23 1.07.22 1.41.34.24.81.25 1.16 0l1-.93V19h3v-4h5v4h3v-5.17c0-.53.21-1.04.59-1.41L18 11l2 1c.15.08.32.13.5.13.6-.02 1.09-.52 1.08-1.13-.01-.24-.08-.47-.24-.65"/></svg>

<svg  viewBox="0 0 24 24" fill="currentColor"><path  d="M21.34,10.35L21.27,10.28L21.18,10.19L18,7V6A0.5,0.5 0 0,0 17.5,5.5C17.36,5.5 17.22,5.56 17.13,5.66L13.46,9H7C6.32,9 5.69,9.35 5.32,9.92L2.62,12.59C2.29,13.04 2.39,13.66 2.84,14C3.18,14.24 3.65,14.25 4,14L5,13.07V19H8V15H13V19H16V13.83C16,13.3 16.21,12.79 16.59,12.42L18,11L20,12V12C20.15,12.08 20.32,12.13 20.5,12.13C21.1,12.11 21.59,11.61 21.58,11C21.57,10.76 21.5,10.53 21.34,10.35Z"/></svg>
